symbols/web/electric_rickshaw/materialsymbolsoutlined/electric_rickshaw_wght500grad200_20px.svg

<svg xmlns="http://www.w3.org/2000/svg" height="20" width="20"><path d="M5.021 14.75q-.854 0-1.531-.479-.678-.479-1.011-1.209h-.104q-.958 0-1.677-.739-.719-.74-.719-1.74v-6.25q0-1.021.719-1.739.719-.719 1.719-.719h10.208q.396 0 .771.187.375.188.625.5l3.625 4.209q.208.25.344.562.135.313.135.625v1.334q.792.25 1.333.989.542.74.542 1.636 0 1.166-.833 2-.834.833-1.959.833-.854 0-1.573-.49-.718-.489-1.031-1.198H7.625q-.333.73-1.042 1.209-.708.479-1.562.479ZM2.417 6.479h3.021V4.333H2.417Zm5.229 4.104h3.646v-6.25H7.646v2.146h2.25v2.229h-2.25ZM13.5 7.312h1.479L13.5 5.75Zm-8.458 5.167q.208 0 .364-.167.156-.166.156-.374 0-.188-.156-.344-.156-.156-.364-.156-.209 0-.365.156t-.156.364q0 .188.156.354.156.167.365.167Zm12.166 0q.209 0 .375-.167.167-.166.167-.374 0-.188-.167-.344-.166-.156-.375-.156-.187 0-.354.156-.166.156-.166.364 0 .188.166.354.167.167.354.167Zm-6.416 7.125-5.563-2.812h3.729v-1.834l5.604 2.771h-3.77ZM2.417 8.708v2h.021q.416-.729 1.093-1.146.677-.416 1.511-.416h.208q.125 0 .188-.042v-.396ZM13.5 10.646h1.188q.166-.271.354-.531.187-.261.396-.511v-.062H13.5Zm1.188-1.104H13.5h1.938-.75Zm-12.25-.834h-.021 3.021-3Z"/></svg>

<svg xmlns="http://www.w3.org/2000/svg" height="20" width="20"><path d="M5.021 14.75Q4.167 14.75 3.49 14.271Q2.812 13.792 2.479 13.062H2.375Q1.417 13.062 0.698 12.323Q-0.021 11.583 -0.021 10.583V4.333Q-0.021 3.312 0.698 2.594Q1.417 1.875 2.417 1.875H12.625Q13.021 1.875 13.396 2.062Q13.771 2.25 14.021 2.562L17.646 6.771Q17.854 7.021 17.99 7.333Q18.125 7.646 18.125 7.958V9.292Q18.917 9.542 19.458 10.281Q20 11.021 20 11.917Q20 13.083 19.167 13.917Q18.333 14.75 17.208 14.75Q16.354 14.75 15.635 14.26Q14.917 13.771 14.604 13.062H7.625Q7.292 13.792 6.583 14.271Q5.875 14.75 5.021 14.75ZM2.417 6.479H5.438V4.333H2.417Q2.417 4.333 2.417 4.333Q2.417 4.333 2.417 4.333ZM7.646 10.583H11.292V4.333H7.646V6.479H9.896V8.708H7.646ZM13.5 7.312H14.979L13.5 5.75ZM5.042 12.479Q5.25 12.479 5.406 12.312Q5.562 12.146 5.562 11.938Q5.562 11.75 5.406 11.594Q5.25 11.438 5.042 11.438Q4.833 11.438 4.677 11.594Q4.521 11.75 4.521 11.958Q4.521 12.146 4.677 12.312Q4.833 12.479 5.042 12.479ZM17.208 12.479Q17.417 12.479 17.583 12.312Q17.75 12.146 17.75 11.938Q17.75 11.75 17.583 11.594Q17.417 11.438 17.208 11.438Q17.021 11.438 16.854 11.594Q16.688 11.75 16.688 11.958Q16.688 12.146 16.854 12.312Q17.021 12.479 17.208 12.479ZM10.792 19.604 5.229 16.792H8.958V14.958L14.562 17.729H10.792ZM2.417 8.708V10.708Q2.438 10.708 2.438 10.708Q2.438 10.708 2.438 10.708Q2.854 9.979 3.531 9.562Q4.208 9.146 5.042 9.146Q5.125 9.146 5.25 9.146Q5.375 9.146 5.438 9.104V8.708ZM13.5 10.646H14.688Q14.854 10.375 15.042 10.115Q15.229 9.854 15.438 9.604V9.542H13.5ZM14.688 9.542H13.5H15.438Q15.229 9.542 15.042 9.542Q14.854 9.542 14.688 9.542ZM2.438 8.708Q2.438 8.708 2.438 8.708Q2.438 8.708 2.417 8.708H5.438Q5.375 8.708 5.25 8.708Q5.125 8.708 5.042 8.708Q4.208 8.708 3.531 8.708Q2.854 8.708 2.438 8.708Z"/></svg>
